X: 1
T: Leitrim Thrush, The
M: 4/4
L: 1/8
R: reel
K: Cmaj
A3B cAGB|AcAG EFGc|AGAB cdef|geag ecdB|
AGAB cAGB|AcAG EB,Cc|AGAB cdef|(3gfe ag &quot;H&quot;ecc2||
(3gag ec gcec|gcec Bcd2|gcec gcec|gagf ecc2|
(3gag ec gcec|gcec Bcd2|gage (3ded cA|GAag &quot;D.C.&quot;ecdc|]
